icon/cg/hashtag.svg

<svg width="24" height="24" fill="none" xmlns="http://www.w3.org/2000/svg"><path fill-rule="evenodd" clip-rule="evenodd" d="M8 4v4H4v2h4v4H4v2h4v4h2v-4h4v4h2v-4h4v-2h-4v-4h4V8h-4V4h-2v4h-4V4H8Zm6 10v-4h-4v4h4Z" fill="currentColor"/></svg>

<svg viewBox="0 0 24 24" fill="none" xmlns="http://www.w3.org/2000/svg" height="1em" width="1em">
  <path fill-rule="evenodd" clip-rule="evenodd" d="M8 4V8H4V10H8V14H4V16H8V20H10V16H14V20H16V16H20V14H16V10H20V8H16V4H14V8H10V4H8ZM14 14V10H10V14H14Z" fill="currentColor"/>
</svg>
